client/src/shared/assets/icons/upload.svg

<svg width="24" height="24" viewBox="0 0 24 24" fill="none" xmlns="http://www.w3.org/2000/svg">
<path d="M16.7811 7.5789L13.3335 4.31269V16.4209C13.3335 17.1186 12.7365 17.6841 12.0001 17.6841C11.2637 17.6841 10.6668 17.1186 10.6668 16.4209V4.31269L7.21904 7.57897C6.69835 8.07226 5.85412 8.07226 5.33343 7.57897C5.26834 7.51731 5.21139 7.45085 5.16258 7.38081C4.82087 6.89052 4.87782 6.22423 5.33343 5.7926L11.0573 0.369978C11.3073 0.133086 11.6465 0 12.0001 0C12.3537 0 12.6929 0.133086 12.9429 0.369978L18.6668 5.79252C19.1875 6.28582 19.1875 7.0856 18.6668 7.5789C18.146 8.07218 17.3019 8.07218 16.7811 7.5789Z" fill="#515153"/>
<path d="M1.33333 15.1579C2.06972 15.1579 2.66666 15.7234 2.66666 16.4211V21.4737H21.3333V16.4211C21.3333 15.7234 21.9303 15.1579 22.6667 15.1579C23.4031 15.1579 24 15.7234 24 16.4211V21.4737C24 22.869 22.8061 24 21.3333 24H2.66666C1.19391 24 0 22.869 0 21.4737V16.4211C0 15.7234 0.596959 15.1579 1.33333 15.1579Z" fill="#515153"/>
</svg>

<svg xmlns="http://www.w3.org/2000/svg" fill="currentColor" viewBox="0 0 24 24"><path d="m16.781 7.579-3.447-3.266V16.42c0 .698-.598 1.263-1.334 1.263s-1.333-.565-1.333-1.263V4.313L7.219 7.579a1.386 1.386 0 0 1-1.886 0 1.214 1.214 0 0 1 0-1.786L11.057.37c.25-.237.59-.37.943-.37.354 0 .693.133.943.37l5.724 5.423c.52.493.52 1.293 0 1.786a1.386 1.386 0 0 1-1.886 0"/><path d="M1.333 15.158c.737 0 1.334.565 1.334 1.263v5.053h18.666V16.42c0-.698.597-1.263 1.334-1.263.736 0 1.333.565 1.333 1.263v5.053C24 22.869 22.806 24 21.333 24H2.667C1.194 24 0 22.869 0 21.474V16.42c0-.698.597-1.263 1.333-1.263"/></svg>
